app/images/icons/facebook-icon.svg

<svg width="39" height="39" viewBox="0 0 39 39" fill="none" xmlns="http://www.w3.org/2000/svg">
<circle cx="19.5" cy="19.5" r="19.5" fill="#ECECEC"/>
<path d="M17.5468 29.5263V19.8948H15V16.427H17.5468V13.465C17.5468 11.1374 19.0512 9 22.5176 9C23.9211 9 24.959 9.13455 24.959 9.13455L24.8772 12.3729C24.8772 12.3729 23.8188 12.3626 22.6638 12.3626C21.4137 12.3626 21.2134 12.9387 21.2134 13.8948V16.427H24.9765L24.8128 19.8948H21.2134V29.5263H17.5468Z" fill="#31352B"/>
</svg>

<svg xmlns="http://www.w3.org/2000/svg" fill="none" viewBox="0 0 39 39"><circle cx="19.5" cy="19.5" r="19.5" fill="#ECECEC"/><path fill="#31352B" d="M17.547 29.526v-9.631H15v-3.468h2.547v-2.962c0-2.328 1.504-4.465 4.97-4.465 1.404 0 2.442.135 2.442.135l-.082 3.238s-1.058-.01-2.213-.01c-1.25 0-1.45.576-1.45 1.532v2.532h3.763l-.164 3.468h-3.6v9.631h-3.666z"/></svg>
